X:1
T:I Am Thine, O Lord
T:I Am Thine, O Lord
T:William Howard Doane
T:Frances Jane (Fanny) Crosby, 1875
T:Public Domain Courtesy of the Cyber Hymnal™
T:Public Domain Courtesy of the Cyber Hymnal™
C:William Howard Doane
Z:Public Domain
Z:Courtesy of the Cyber Hymnal™
%%score ( 1 2 ) ( 3 4 )
L:1/8
Q:1/4=105
M:4/4
K:Ab
V:1 treble 
V:2 treble 
V:3 bass 
V:4 bass 
V:1
 [Ec][Fd] | [Ec]2 [DB]2 [DB]2 [DB][Ec] | [DB]2 [CA]2 [CA]2 [EA][EG] | [DF]2 [DF]2 [DF]2 (AF) | %4
w: 1.~I am|Thine, O Lord, I have|heard Thy voice, And it|told Thy love to *|
w: 2.~Con- se-|crate me now to Thy|ser- vice, Lord, By the|power of grace di- *|
w: 3.~O the|pure de- light of a|sin- gle hour That be-|fore Thy throne I *|
w: 4.~There are|depths of love that I|can- not know Till I|cross the nar- row *|
 [CE]6 [Ec][Fd] | [Ec]2 [DB]2 [DB]2 [DB][Ec] | [DB]2 [CA]2 [CA]2 [DB][Ec] | %7
w: me; But I|long to rise in the|arms of faith And be|
w: vine; Let my|soul look up with a|stead- fast hope, And my|
w: spend, When I|kneel in prayer, and with|Thee, my God I com-|
w: sea; There are|heights of joy that I|may not reach Till I|
 [Fd]2 [Fd]2 [EG]2 [EG]2 | [EA]6 ||"^Refrain" [Ec][Ed] | [Ae]4 [Ec]4 | %11
w: clos- er drawn to|Thee.|||
w: will be lost in|Thine.|Draw me|near- er,|
w: mune as friend with|friend!|||
w: rest in peace with|Thee.|||
 [FB][FA][EG][DF] [CE]2 [EA][EG] | [DF]2 [EA]2 [Ed]2 [Ec]2 | [EB]6 [Ec][Ed] | %14
w: |||
w: near- er bless- èd Lord, To the|cross where Thou hast|died. Draw me|
w: |||
w: |||
 [Ae]2 [Ae]2 [Ec]2 [Ec]2 | [FB][FA][EG][DF] !fermata![Fd]7/2 [Fc][FB] | [EA]2 [EA]2 [Ec]3 [DB] | %17
w: |||
w: nea- rer, near- er,|near- er bless- èd Lord, To Thy|pre- cious, bleed- ing|
w: |||
w: |||
 [CA]6 |] %18
w: |
w: side.|
w: |
w: |
V:2
 x2 | x8 | x8 | x6 D2 | x8 | x8 | x8 | x8 | x6 || x2 | x8 | x8 | x8 | x8 | x8 | x19/2 | x8 | x6 |] %18
V:3
 [A,,A,][A,,A,] | [A,,A,]2 [E,G,]2 [E,G,]2 [E,G,][E,G,] | [E,G,]2 [A,,A,]2 [A,,A,]2 [C,A,][C,A,] | %3
 [D,A,]2 [D,A,]2 [D,A,]2 (F,A,) | [A,,A,]6 [A,,A,][A,,A,] | [A,,A,]2 [E,G,]2 [E,G,]2 [E,G,][E,G,] | %6
 [E,G,]2 [A,,A,]2 [A,,A,]2 [A,,A,][A,,A,] | [D,A,]2 [B,,B,]2 [E,B,]2 [E,D]2 | [A,,C]6 || A,[A,B,] | %10
 [A,C]4 [A,,A,]4 | [D,A,][D,A,][D,A,][D,A,] [A,,A,]2 [C,A,][C,A,] | %12
 [D,A,]2 [C,A,]2 [B,,G,]2 [A,,A,]2 | [E,G,]6 A,[A,B,] | [A,C]2 [A,C]2 [A,,A,]2 [A,,A,]2 | %15
 [D,A,][D,A,][D,A,][D,A,] !fermata![D,A,]7/2 [D,E][D,D] | [E,C]2 [E,C]2 [E,A,]3 [E,G,] | %17
 [A,,A,]6 |] %18
V:4
 x2 | x8 | x8 | x6 D,2 | x8 | x8 | x8 | x8 | x6 || A, x | x8 | x8 | x8 | x6 A, x | x8 | x19/2 | %16
 x8 | x6 |] %18

